baby-bottle.svg

<svg fill="currentColor" viewBox="0 0 24 24"><path d="m11.28 2.8-.5.5a5.5 5.5 0 0 0-4.37-.43l-.08-.07A2.5 2.5 0 0 0 2.8 6.33l.07.08a5.5 5.5 0 0 0 .43 4.37l-.5.5a1.5 1.5 0 0 0 0 2.12l1.41 1.42a1.5 1.5 0 0 0 2.12 0l.35-.36 7.08 7.07a1.5 1.5 0 0 0 2.12 0l5.65-5.65a1.5 1.5 0 0 0 0-2.12l-7.07-7.08.36-.35a1.5 1.5 0 0 0 0-2.12L13.4 2.8a1.5 1.5 0 0 0-2.12 0m2.48 2.47-8.49 8.49-1.41-1.42 8.48-8.48m2.48 7.77-3.19 3.19-1.06-1.06 3.19-3.19m3.18 3.19-3.18 3.18-1.07-1.06 3.19-3.19Z"/></svg>

<svg  viewBox="0 0 24 24" fill="currentColor"><path  d="M11.28 2.8L10.78 3.3A5.5 5.5 0 0 0 6.41 2.87L6.33 2.8A2.5 2.5 0 0 0 2.8 6.33L2.87 6.41A5.5 5.5 0 0 0 3.3 10.78L2.8 11.28A1.5 1.5 0 0 0 2.8 13.4L4.21 14.82A1.5 1.5 0 0 0 6.33 14.82L6.68 14.46L13.76 21.53A1.5 1.5 0 0 0 15.88 21.53L21.53 15.88A1.5 1.5 0 0 0 21.53 13.76L14.46 6.68L14.82 6.33A1.5 1.5 0 0 0 14.82 4.21L13.4 2.8A1.5 1.5 0 0 0 11.28 2.8M13.76 5.27L5.27 13.76L3.86 12.34L12.34 3.86M14.82 11.63L11.63 14.82L10.57 13.76L13.76 10.57M16.94 13.76L13.76 16.94L12.69 15.88L15.88 12.69Z"/></svg>
